X:1
T:C Major Timothy Swan, 1801
T:Isaac Watts, 1719 (Psalm 50, Part 6)    10 10. 10 10, 10 10.
T:Judgment
T:Transcribed from Swan's New England Harmony, 1801.
%%score [ 1 2 3 ( 4 5 ) ]
L:1/8
Q:1/4=150
M:4/4
K:C
V:1 treble nm="Tr." snm="Tr."
V:2 treble nm="C." snm="C."
V:3 treble-8 nm="T." snm="T."
V:4 bass nm="B." snm="B."
V:5 bass 
V:1
 c8 | c4 d4 | e4 d4 | e2 c2 B2 c2 | d8 | c4 e2 c2 | c2 e2 g2 G2 | A4 c4 | G8 | g4 e2 c2 | c6 g2 | %11
 e2 e2 fe dc | G8 | A4 e2 d2 | e6 c2 | A4 f4 | (e2 c2) B4 | A8 | z4 G4 | G2 G2 (e3 d | c2 G2 c4- | %21
 c4) z4 | z8 | (c4 d2) e2 | g4 d4 | g2 gg c2 G2 | A4 c4 | A2 G2 G4 | G8 | z8 | z8 | z8 | z8 | z8 | %34
 z4 c4 | e2 e2 e4 | G4 G4- | G4 z4 | A4 A2 A2 | c6 c2 | c6 A2 | B3 B A4- | A4 z2 A2 | c6 f2 | %44
 f4 F4 | A6 c2 | d4 A4 | d8 | f4 f2 e2 | d6 d2 | c2 f2 c4 | c4 c4- | c4 z4 | z8 | z4 z2 c2 | %55
 A2 f2 d2 A2 | c4 c4 | G4 A2 A2 | B2 B2 z4 | cA c2 A2 c2 | (A4 G4) | G8 | A4 d2 d2 | A4 A4 | %64
 d4 c4 | c6 c2 | c6 c2 | f4 (d2 B2) | A6 c2 | d3 f c2 A2 | c6 c2 | A2 f2 G2 A2 | B4 f4 | f4 c4 | %74
 c6 f2 | A2 A2 c2 f2 | e3 e f2 c2 | d8 | z4 c4 | A2 A2 d2 d2 | c3 B A2 B2 | %81
 c6"^When Christ re    –   turns,     wake every cheerful passion," c2 | (f2 c2) (B2 A2) | f6 c2 | %84
 d2 c2 B2 A2 | A4 G2 c2 | (c2 A2 f2) d2 | d4 z2 c2 | c4 d4 | c6 c2 | A2 f2 e2 d2 | c4 c4 | z4 c4 | %93
 c6 c2 | c4 c4 | f3 c B2 A2 | G8 | z4 c4 | d2 d2 A4 | A4 A2 c2 | G2 G2 G4- | G4 z2 G2 | c4 d4 | %103
 e6 d2 | c6 e2 | d4 d4 | d6 g2 | (c3 d e2) f2 | (g2 e2 c2) e2 | A4 G4 | (A2 f2 ed) cB | c8 | %112
 z4 z2"^There's no distinction" e2 | e2 e2 d2 d2 |"^here," e4 z4 | z8 | z8 | G4 G2 G2 | G8 | %119
 G4 z4 | c4 c2 c2 | c8 | G8 | G4 e2 e2 | d6 G2 | d6 c2 | cB A2 (G2 B2) | c6 z2 | e4 e2 d2 | c4 B4 | %130
 c2 c2 e2 g2 | d6 z2 | z8 | z8 | z8 | z8 | e4 e2 e2 | e6 e2 | e2 c2 G2 G2 | G4 c4 | g4 (e2 c2) | %141
 (A4 G2) g2 | (f4 e2) d2 | (e4 d2) d2 | c6 e2 | (e4 d2) G2 | (A2 f2 e2) d2 | c6 c2 | %148
 (c2 G2) (G2 c2) | (c3 d e2) e2 | A2 A2 G2 G2 | (G4 B4) | c6 c2 | e6 g2 | c4 z2 c2 | e6 g2 | %156
 d6 d2 | (e2 c2 G2) c2 | [Bd]4 z2 d2 | (e3 f g2) c2 | G4 (c3 d) | (e4 Td4) | c8 |] %163
V:2
"^The     God  of     glo – ry    sends his summons  forth,  Calls the south nations and  awakes  the   north;   From east to   west             the" E8 | %1
 G4 G4 | G4 G4 | E2 E2 G2 G2 | G8 | G4 E2 G2 | A2 A2 G2 E2 | A4 G4 | G8 | G4 G2 G2 | E6 c2 | %11
"^sovereign  orders      spread,  Through  distant  worlds  and  regions  of the dead:           The trumpet sounds; _____________" B2 c2 A2 A2 | %12
 G8 | A4 B2 B2 | c6 E2 | D4 D4 | (E2 G2) G4 | E8 | z4 G4 | G2 G2 G4- | G8- | G4 z4 | z8 | %23
"^heaven  re   –   joi – ces; Lift up your heads, ye saints,  with     cheerful   voi –  ces." G4 (A2 c2) | %24
 B4 G4 | G2 GG c2 B2 | A4 E4 | A2 A2 G4 | G8 | z8 | z8 | z8 | z8 | z8 | %34
 z4"^His  vengeance  sleeps no more,               His vengeance sleeps      no more;  be – hold the day:             Be – hold, ____  the   Judge       de –" G4 | %35
 E2 E2 A4 | B4 (c4 | G4) z4 | F4 F2 F2 | (E3 F G2) E2 | F6 A2 | F3 F F4- | F4 z2 A2 | %43
 (A3 G F2) F2 | F6 F2 | %45
"^–scends; his guards are nigh; Tempests and fire attend him down the sky.                                                    all nature shall adore him; While sinners" D4 E4 | %46
 F4 A4 | A8 | c4 c2 A2 | F6 G2 | A2 A2 G4 | E4 F4- | F4 z4 | z8 | z4 z2 F2 | F2 F2 A2 A2 | G4 G4 | %57
 E4 F2 F2 | %58
"^tremble,   saints  re – joice  be   –   fore      him.\"Heav'n earth and hell draw near; let all things come To hear  my     justice,     and the sinner's" F2 F2 z4 | %59
 A2 BG F2 G2 | (A4 G4) | G8 | A4 G2 B2 | A4 A4 | F4 F4 | G6 G2 | A6 F2 | F4 F4 | A4 A4 | %69
 A2 F2 D2 F2 | %70
"^doom; But gather first my saints,\" the     Judge  com–mands, \"Bring them, ye angels, from their distant lands,           Bring them, ye angels," G6 G2 | %71
 F2 F2 B2 A2 | G4 F4 | F4 c4 | A6 A2 | F2 F2 c2 c2 | G3 G F2 F2 | F8 | z4 A4 | F2 A2 B2 B2 | %80
"^from  their  dis – tant  lands.\"                                                                                                        And  shout,  shout,  shout,   And shout, ye  saints; he" A3 G FA GF | %81
 G6 z2 | z8 | z8 | z8 | z4 z2 A2 | A6 F2 | G4 z2 A2 | (A4 F2) F2 | c6 G2 | %90
"^comes for your salvation.    \"Be – hold,  my covenant stands for ever good,      Sealed by th'e–ter –nal  sa–cri–fice in blood,  And signed with" A2 F2 G2 F2 | %91
 E4 F4 | z4 F4 | G6 G2 | A4 A4 | F2 F2 D2 F2 | G8 | z4 A4 | F2 F2 F4 | A4 A2 A2 | F2 D2 G4- | %101
 G4 z2 G2 | G4 G4 | %103
"^all their names; the Greek, the Jew, Who paid        the    an        –     cient   ho  –  mage  or ___  the ______   new.\"" G6 G2 | %104
 G6 E2 | F4 A4 | G6 G2 | E6 F2 | G6 G2 | (A4 B2) c2 | (c2 A2) (G3 F) | E8 | z8 | z8 | z8 | z8 | %116
 z8 | %117
"^Join  all  your  voi – ces,        Join  all  your   voi – ces,  And raise your heads,       ye     saints,         for" G4 G2 G2 | %118
 G8 | G4 z4 | G4 G2 G2 | G8 | G8 | E4 G2 G2 | G6 G2 | A6 A2 | %126
"^heav'n  re – joi  –  ces.    \"Here,\" saith the Lord, \"ye angels,  spread  their thrones" c2 c2 G4 | %127
 G6 z2 | G4 G2 G2 | G4 G4 | G2 E2 c2 E2 | G6 z2 | z8 | z8 | z8 | z8 | %136
"^Come, my redeemed,   possess the joys prepared  Ere   time              be  –  gan;    'tis    your    di    –    vine    re   –  ward,     'tis   your    di   –" G4 c2 c2 | %137
 (G3 F E2) c2 | A2 c2 G2 G2 | E4 A4 | G6 E2 | (F4 G2) c2 | A4 (G2 B2) | c4 B4 | c6 c2 | c4 G4 | %146
"^–vine   re  – ward.\"  When Christ ____ re  – turns,    wake  eve  –  ry     cheerful  pas    –   sion;  And  shout,    ye    saints, And  shout,       ye" A4 G4 | %147
 G6 G2 | (G3 F E2) G2 | G6 c2 | cA GF E2 A2 | G8 | G6 G2 | c6 B2 | c6 G2 | G6 G2 | %156
"^saints;   he        comes,         he         comes,        he      comes ____ for      your  sal       –    va        –      tion." G6 G2 | %157
 (E2 G2 A2) c2 | G4 z2 G2 | (G2 E2 c2) c2 | c4 (G2 c2) | (TA4 G4) | G8 |] %163
V:3
 e8 | e4 d4 | (c4 d2) g2 | c2 c2 e2 fe | d8 | e4 c2 G2 | c2 c2 c2 G2 | f4 e4 | d8 | e4 e2 e2 | %10
 e6 e2 | g2 g2 d2 d2 | d8 | d4 B2 G2 | c6 c2 | F6 F2 | E4 E4 | E8 | z4 G4 | e2 d2 (g3 d | %20
 e3 f e4- | e4) z4 | z8 | (e3 f d2) c2 | d4 g4 | G2 cB c2 de | (f4 e2) ag | f2 e2 d4 | c8 | z8 | %30
 z8 | z8 | z8 | z8 | z4 e4 | c2 c2 (c4 | d3) c (c4 | G4) z4 | f4 f2 f2 | e6 e2 | f6 c2 | d3 d (d4 | %42
 c4) z2 f2 | c6 d2 | A6 A2 | F4 E4 | D4 B4 | A8 | c4 c2 c2 | f6 g2 | e2 c2 A4 | G4 F4- | %52
 F4 z2"^When God appears," F2 | B4 A4 | A6 A2 | d2 d2 A2 F2 | G4 G4 | c4 A2 F2 | F2 F2 z4 | %59
 f2 fe d2 eg | (f4 d4) | c8 | (f2 c2) B2 B2 | F4 E4 | B4 A4 | (G4 c2) G2 | A6 c2 | d4 d4 | c6 A2 | %69
 A3 A A2 A2 | G6 c2 | f2 A2 G2 F2 | (d4 c2) c2 | d4 e4 | f6 c2 | c2 c2 c2 c2 | c3 c c2 A2 | B8 | %78
 z4 f4 | f2 f2 f2 f2 | f3 e f2 Td2 | %81
 c6"^When Christ re    –   turns,     wake every cheerful passion," A2 | (B2 A2) (G2 F2) | %83
 (B3 c d2) A2 | B2 A2 G2 F2 | F4 C2 F2 | (c4 A2) d2 | d4 z2 f2 | (f4 d2) f2 | c6 f2 | c2 d2 c2 c2 | %91
 (A2 G2) F4 | z4 A4 | c6 de | f4 e4 | d3 d d2 A2 | c8 | z4 A4 | A2 AG F4 | d4 c2 c2 | d2 d2 c4- | %101
 c4 z2 c2 | c4 B4 | c6 d2 | e6 e2 | f4 d4 | d6 d2 | e6 d2 | e6 de | f4 e4 | A4 B4 | c8 | %112
 z4 z2"^There's no distinction" c2 | c2 c2 B2 G2 |"^here, There's no distinction here;" c4 z2 e2 | %115
 e2 d2 c2 d2 | e4 z4 | c4 G2 G2 | G8 | G4 z4 | e4 e2 e2 | e8 | d8 | c4 c2 c2 | (B3 c d2) d2 | %125
 (d3 e f2) ed | eg c2 (G2 B2) | c6 z2 | E4 E2 E2 | F4 G4 | c2 eg fe dc | %131
 d6"^And      near      me       seat       my  fav'rites   and   my  sons:" cB | (A2 F2) (E2 G2) | %133
 A4 z2 ed | e2 A2 cd c2 | d8 | c4 c2 c2 | c6 c2 | c2 c2 d2 c2 | B4 A4 | (G2 AB c2) e2 | %141
 (F4 E2) G2 | A4 (B2 G2) | c4 (d2 f2) | e6 E2 | F4 (G2 E2) | A4 (B2 G2) | c6 ed | c4 (E2 G2) | %149
 G6 c2 | cB A2 B2 c2 | d8 | e6 e2 | c6 d2 | e4 z2 g2 | (e3 c d2) d2 | G6 cB | (A2 G2 c2) fe | %158
 (e2 d2) z2 G2 | c4 (e3 d) | c4 (e3 d) | (c4 B4) | c8 |] %163
V:4
 C,8 | [C,E,]4 [G,,G,]4 | [C,C]4 [G,,G,]4 | [A,,A,]2 [A,,A,]2 E,2 C,2 | [G,,G,]8 | %5
 [C,C]4 [C,C]2 [G,,G,]2 | [A,,A,]2 [A,,A,]2 E,2 E,2 | D,4 (C,2 E,2) | [G,,G,]8 | %9
 [C,C]4 [C,C]2 [C,C]2 | (C3 B, A,2) C2 | [C,E]2 [C,C]2 [D,D]2 D,2 | [G,,G,]8 | D,4 E,2 G,2 | %14
 C,6 C,2 | D,4 B,,4 | C,4 E,4 | A,,8 | z4 G,4 | E,2 G,2 (E,2 G,2 | [C,C]8- | %21
 [C,C]4)"^hell   trembles;" C,4 | A,,2 C,6 | (C4 B,2) A,2 | [G,,G,]4 [G,,G,]4 | G,2 A,G, F,2 E,2 | %26
 D,4 C,4 | D,2 E,F, G,4 | C,8 | z4"^No  more  shall  atheists mock his  long   de  –  lay;" F,4 | %30
 E,6 D,2 | C,2 C,2 E,2 G,2 | (G,2 F,2 E,2) D,2 | C,8 | z4 C4 | C2 A,2 (A,4 | G,3) G, (C,4 | %37
 G,4) z4 | F,4 F,2 D,2 | C,6 C,2 | F,6 F,2 | B,,3 B,, F,4- | F,4 z2 F,2 | F,6 F,2 | %44
 (F,3 E, D,2) D,2 | D,4 A,,4 | D,4 D,4 | D,8 | C,4 F,2 A,2 | B,6 G,2 | A,2 A,B, C4 | C,4 F,4- | %52
 F,4 z4 | z8 | z4 z2 F,2 | D,2 D,2 D,2 F,2 | C,4 C,4 | C,4 F,2 F,2 | B,,2 B,,2 z4 | %59
 A,,2 B,,C, D,2 C,2 | (F,4 G,4) | C,8 | F,4 G,2 G,2 | (A,4 A,,2) A,,2 | B,,4 F,4 | C,6 C,2 | %66
 F,6 F,2 | D,4 B,4 | A,4 A,,4 | D,3 D, F,2 F,2 | C,6 C,2 | D,2 D,2 E,2 F,2 | (G,4 A,2) F,2 | %73
 B,4 (C2 C,2) | F,6 F,2 | A,2 F,2 C,2 A,,2 | C,3 C, F,2 F,2 | B,,8 | z4 F,4 | F,2 D,2 B,,2 B,,2 | %80
 F,3 F, F,2 G,2 | C,6 z2 | z8 | z8 | z8 | z4 z2 F,2 | (F,3 G, A,2) B,2 | G,4 z2 F,2 | F,4 B,,4 | %89
 C,6 C,2 | F,2 F,2 C,2 A,,2 | C,4 F,4 | z4 F,4 | C,6 C,2 | F,4 A,4 | B,3 A, G,2 F,2 | C,8 | %97
 z4 F,4 | D,2 D,2 D,4 | D,4 A,2 F,2 | D,2 G,2 C,4- | C,4 z2 C,2 | C,4 G,,4 | C,6 G,2 | C4 C,4 | %105
 D,4 D4 | G,6 G,2 | (C3 B, A,2) B,2 | C6 E,2 | D,4 (E,2 C,2) | F,4 G,4 | C,8 | z8 | z8 | %114
 z4 z2"^There's no distinction here;" C2 | C2 B,2 A,2 G,2 | C4 z4 | C4 G,2 G,2 | G,8 | G,4 z4 | %120
 [C,C]4 [C,C]2 [C,C]2 | C,8 | [G,,G,]8 | [C,C]4 [C,E]2 E,2 | [G,,G,]6 [G,,G,]2 | D,6 D,2 | %126
 E,2 F,2 G,4 | C,6 z2 | C,4 E,2 G,2 | C4 (G,2 E,2) | C,2 C,2 C,2 C,2 | G,6 z2 | z8 | z8 | z8 | z8 | %136
 C,4 C,2 C,2 | C,6 C,2 | [A,,A,]2 [A,,A,]2 [G,,G,]2 [C,C]2 | E,4 F,4 | (G,2 E,2 C,2) C,2 | %141
 (D,4 E,2) C,2 | (F,2 D,2) G,4 | (A,2 C2) B,4 | C6 C2 | (C2 A,2) G,4 | (F,2 D,2) (E,2 G,2) | %147
 C,6 C,2 | C,4 C,4 | C,6 C,2 | F,2 F,2 E,2 C,2 | [G,,G,]8 | [C,C]6 [C,C]2 | (C3 B, A,2) G,2 | %154
 C4 z2 C2 | (C4 G,2) G,2 | G,6 G,,2 | C,6 C,2 | G,4 z2 G,2 | C,4 C,4 | C,4 C,4 | (F,4 G,4) | C,8 |] %163
V:5
 x8 | x8 | x8 | x8 | x8 | x8 | x8 | x8 | x8 | x8 | C,6 C,2 | x8 | x8 | x8 | x8 | x8 | x8 | x8 | %18
 x8 | x8 | x8 | x8 | x8 | C,4 D,4 | x8 | x8 | x8 | x8 | x8 | x8 | x8 | x8 | x8 | x8 | x8 | x8 | %36
 x8 | x8 | x8 | x8 | x8 | x8 | x8 | x8 | x8 | x8 | x8 | x8 | x8 | x8 | x8 | x8 | x8 | x8 | x8 | %55
 x8 | x8 | x8 | x8 | x8 | x8 | x8 | x8 | x8 | x8 | x8 | x8 | x8 | x8 | x8 | x8 | x8 | x8 | x8 | %74
 x8 | x8 | x8 | x8 | x8 | x8 | x8 | x8 | x8 | x8 | x8 | x8 | x8 | x8 | x8 | x8 | x8 | x8 | x8 | %93
 x8 | x8 | x8 | x8 | x8 | x8 | x8 | x8 | x8 | x8 | x8 | x8 | x8 | x8 | x8 | x8 | x8 | x8 | x8 | %112
 x8 | x8 | x8 | x8 | x8 | x8 | x8 | x8 | x8 | x8 | x8 | x8 | x8 | x8 | x8 | x8 | x8 | x8 | x8 | %131
 x8 | x8 | x8 | x8 | x8 | x8 | x8 | x8 | x8 | x8 | x8 | x8 | x8 | x8 | x8 | x8 | x8 | x8 | x8 | %150
 x8 | x8 | x8 | x8 | x8 | x8 | x8 | x8 | x8 | x8 | x8 | x8 | x8 |] %163

